X:1
T:Title
%%score { ( 1 3 5 ) | ( 2 4 ) }
L:1/8
M:4/4
K:Eb
V:1 treble nm="Grand Piano"
V:3 treble 
V:5 treble 
V:2 bass 
V:4 bass 
V:1
 z4 z2[Q:1/4=96] [EG][FA] | [GB][GB][_G=A][=GB] [E_Ac][Ece][EBd][EAc] | %2
 [EGB]2 [B,FA]2 [B,EG]2 [B,EG][B,GB] | [FA][EG][DF][FA] GFE[EF] | [DF]6 [EG][FA] | %5
 [GB][GB][_G=A][=GB] [_Ac][ce][Bd][Ac] | [GB]2 [FA]2 G2 GG | FBde dcB=A |[M:3/4] [DB]6 | %9
[M:1/4] [DB]>[FA] |[M:35/32] [EG]>[DF]GABEe-(3:2:4e3/2-e/4c3/4-c/8 |[M:4/4] B6- B/4 z/4 z/ z | %12
 (9:8:8BB=A3/2B cB_A3/2G | z2 (3:2:2C3/2E3/2 z2 (3:2:2[DB]2 [FA] | z4 B2- B/4 z/4 z/ z | %15
 (9:8:8eed3/2c [GB]/-[GB]3/2[_G=A]3/2[=GB] | (5:4:4d2 c/ BG3/2 z4 |[M:3/4] E6 |] %18
V:2
 z4 z2 [E,B,][E,B,] | [E,E][E,E][E,E][E,E] A,A,A,A, | B,2 B,,2 E,2 E,E, | %3
 [B,,B,][B,,B,][B,,B,][B,,B,] [E,B,E][E,A,E][E,G,][C,A,] | [B,,B,]6 [E,B,][E,B,] | %5
 [E,E][E,E][E,E][E,E] [A,E][A,E][A,E][A,E] | [B,E]2 [B,,B,]2 [E,B,E]2 [E,B,E][E,B,E] | %7
 [F,B,D][F,B,D][F,B,F][F,CF] [F,B,F][F,=A,E][F,B,D][F,CE] |[M:3/4] [B,,B,]6 | %9
[M:1/4] [B,,F,]>[B,,B,] | %10
[M:35/32] [E,B,]>[B,,B,][E,B,E][E,F,E][E,G,E][G,B,][A,CE]-(3:2:4[A,CE]3/2-[A,CE]/4[A,E]3/4-[A,E]/8 | %11
[M:4/4] z4 z2 (3:2:2[E,B,E]3/2[E,F,E]3/2 | %12
 (9:8:8[E,G,E][E,G,E][E,_G,E]3/2[E,=G,E] [E,A,E][E,G,E][E,CE]3/2[E,B,E] | %13
 (5:4:4[B,,B,]2- [B,,B,]/ [F,=A,][F,C]3/2 z2 (3:2:2[B,,F,]2 [B,,B,] | %14
 (5:4:4[E,B,]2 [B,,B,]/ [E,B,E][E,F,E]3/2 z2 (3:2:2[E,B,E]3/2[K:treble][G,_D]3/2 | %15
 (9:8:8[A,CE][A,CE][A,CE]3/2[A,EA][K:bass] [E,E]/-[E,E]3/2[E,E]3/2[E,E] | %16
 (5:4:4[B,FA]2 [B,DA]/ [B,EG][K:bass][B,E]3/2 z4 |[M:3/4] [E,G,]6 |] %18
V:3
 x8 | x8 | x8 | x8 | x8 | x8 | x8 | x8 |[M:3/4] x6 |[M:1/4] x2 |[M:35/32] x35/4 | %11
[M:4/4] z4 z2 (3:2:2G3/2A3/2 | x511/64 | F6- F/4 z/4 z/ z | %14
 (5:4:4[EG]2 [DF]/ GA3/2 z2 (3:2:2G3/2E3/2 | x8 | z4 (5:4:4[FA][DA]3/2 [EG]/ [DF]2 |[M:3/4] x6 |] %18
V:4
 x8 | x8 | x8 | x8 | x8 | x8 | x8 | x8 |[M:3/4] x6 |[M:1/4] x2 |[M:35/32] x35/4 | %11
[M:4/4] [E,G,E]6- [E,G,E]/4 z/4 z/ z | x511/64 | z4 [B,,B,]2- [B,,B,]/4 z/4 z/ z | %14
 z4 [E,G,E]2- [E,G,E]/4 z/4 z/[K:treble] z | x4[K:bass] x4 | %16
 z4[K:bass] (5:4:4[B,,B,][B,,F,]3/2 [B,,B,]/ [B,,A,]2 |[M:3/4] x6 |] %18
V:5
 x8 | x8 | x8 | x8 | x8 | x8 | x8 | x8 |[M:3/4] x6 |[M:1/4] x2 |[M:35/32] x35/4 |[M:4/4] x8 | %12
 x511/64 | D2- D/4 z/4 z/ z D2- D/4 z/4 z/ z | x8 | x8 | x8 |[M:3/4] x6 |] %18

